X: 3
T: Missa [Bergerette savoysienne] / Credo
N: Derived from Ano1001c-Missa_Bergerette_savoysienne-Credo-Jena_32.krn
C: Anonymous
%%abc-version 2.0
%%abcx-abcm2ps-target-version 5.9.1 (29 Sep 2008)
%%abc-creator hum2abc beta
%%abcx-conversion-date 2019/02/16 20:18:26
%%abc-edited-by Jesse Rodin
%%abc-edited-by Jesse Rodin 8/14/2013
%%abcx-initial-encoding-date 2013/08/14/
%%humdrum-veritas 3412618104
%%humdrum-veritas-data 4020600070
%%linebreak <none>
%%barnumbers 0
L: 1/4
M: 2/1
Q: 1/2=120
%%staves [1 2 3 4]
V: 1 clef=treble
V: 2 clef=treble-8
V: 3 clef=treble-8
V: 4 clef=bass
K: C
[V:1] z8 | 
[V:2] c8 | 
[V:3] z8 | 
[V:4] C8 | 
[V:1] z8 | 
[V:2] d4e4 | 
[V:3] z8 | 
[V:4] B,4C4 | 
[V:1] z8 | 
[V:2] e4e2e2- | 
[V:3] z8 | 
[V:4] A,4G,2C2- | 
[V:1] z8 | 
[V:2] edc4BA | 
[V:3] c8 | 
[V:4] CB,A,G,A,4 | 
[V:1] z8 | 
[V:2] B4z2c2- | 
[V:3] d4e4 | 
[V:4] G,6E,2 | 
[V:1] z8 | 
[V:2] cdefg2c2 | 
[V:3] e4e2e2- | 
[V:4] A,2G,3F,E,D, | 
[V:1] c8 | 
[V:2] gfede4 | 
[V:3] edc4BA | 
[V:4] C,8 | 
[V:1] d4e4 | 
[V:2] d4g4 | 
[V:3] B4c4 | 
[V:4] z8 | 
[V:1] e4e2e2- | 
[V:2] g2e4dc | 
[V:3] z4c4 | 
[V:4] C,8 | 
[V:1] edc4BA | 
[V:2] g8 | 
[V:3] c4c4 | 
[V:4] C,4C,4 | 
[V:1] B8 | 
[V:2] g6fe | 
[V:3] d4d2d2 | 
[V:4] G,8 | 
[V:1] z8 | 
[V:2] d4B2c2- | 
[V:3] B3cdef2- | 
[V:4] G,4G,2A,2- | 
[V:1] z8 | 
[V:2] cBAGA4 | 
[V:3] fee4d2 | 
[V:4] A,G,F,E,F,4 | 
[V:1] z8 | 
[V:2] G3AB2c2- | 
[V:3] e4e2e2- | 
[V:4] E,4E,4- | 
[V:1] z8 | 
[V:2] c2BAG4 | 
[V:3] e2dcB4 | 
[V:4] E,2E,2E,4 | 
[V:1] z8 | 
[V:2] z2G4A2- | 
[V:3] G3ABcd2- | 
[V:4] E,4E,2F,2- | 
[V:1] f6f2 | 
[V:2] AGFEF4 | 
[V:3] dcc4B2 | 
[V:4] F,E,D,C,D,4 | 
[V:1] e4d4- | 
[V:2] G4z4 | 
[V:3] c4f4 | 
[V:4] C,4D,4 | 
[V:1] d2cdc4- | 
[V:2] d4G2g2- | 
[V:3] f4e2e2 | 
[V:4] B,,4C,2C,2 | 
[V:1] c2BcB2AB | 
[V:2] g2feg4 | 
[V:3] d4d4 | 
[V:4] G,4G,4 | 
[V:1] c8- | 
[V:2] z2g4a2- | 
[V:3] c8 | 
[V:4] C,3D,E,2F,2- | 
[V:1] c8 | 
[V:2] a2gfg3f | 
[V:3] z4c4 | 
[V:4] F,2E,D,C,4 | 
[V:1] z8 | 
[V:2] edg3fed | 
[V:3] B3cd2e2- | 
[V:4] G,3A,B,2C2- | 
[V:1] z8 | 
[V:2] c4d4 | 
[V:3] edc4B2 | 
[V:4] C2B,A,G,4 | 
[V:1] z8 | 
[V:2] z2g4a2- | 
[V:3] c8 | 
[V:4] C,3D,E,2F,2- | 
[V:1] z8 | 
[V:2] a2gfg3f | 
[V:3] z4c4 | 
[V:4] F,2E,D,C,4 | 
[V:1] z8 | 
[V:2] edg3fed | 
[V:3] B3cd2e2- | 
[V:4] G,3A,B,2C2- | 
[V:1] z8 | 
[V:2] c4d4 | 
[V:3] edc4B2 | 
[V:4] C2B,A,G,4 | 
[V:1] c8 | 
[V:2] z2g4a2- | 
[V:3] c8 | 
[V:4] C,3D,E,2F,2- | 
[V:1] d4e4 | 
[V:2] a2gfg4 | 
[V:3] z4c3d | 
[V:4] F,2E,D,C,4 | 
[V:1] e4e2e2- | 
[V:2] e8 | 
[V:3] efg2a2g2- | 
[V:4] z2C2A,2C2- | 
[V:1] edc4BA | 
[V:2] z4c4 | 
[V:3] g2e2f4 | 
[V:4] CB,A,G,A,4 | 
[V:1] B8 | 
[V:2] d3cBAG2- | 
[V:3] g4z2g2- | 
[V:4] G,4z2G,2 | 
[V:1] z8 | 
[V:2] G2c4BA | 
[V:3] gfe4dc | 
[V:4] E,4C,4 | 
[V:1] z8 | 
[V:2] B4A2B2- | 
[V:3] d3ef2g2- | 
[V:4] G,4z2G,2 | 
[V:1] z8 | 
[V:2] B2c4BA | 
[V:3] gfe4dc | 
[V:4] E,4C,4 | 
[V:1] z8 | 
[V:2] B4G4 | 
[V:3] d4z2g2- | 
[V:4] G,4z2G,2 | 
[V:1] z8 | 
[V:2] g4z2g2 | 
[V:3] gfe3dc2- | 
[V:4] E,4C,4 | 
[V:1] f6f2 | 
[V:2] f4d4 | 
[V:3] c2BAB4 | 
[V:4] D,4z2D,2 | 
[V:1] e4d4- | 
[V:2] z2g2f4 | 
[V:3] c4d4 | 
[V:4] E,2E,2F,4 | 
[V:1] d2cdc4- | 
[V:2] d4z2e2 | 
[V:3] B4c4 | 
[V:4] G,4z2E,2 | 
[V:1] c2BcB2AB | 
[V:2] a4g4 | 
[V:3] d4z2d2 | 
[V:4] F,4G,4 | 
[V:1] c8- | 
[V:2] e2f4g2 | 
[V:3] c3BAGG2- | 
[V:4] A,2F,4E,2 | 
[V:1] c8 | 
[V:2] a2gfe4 | 
[V:3] G2F2G4 | 
[V:4] F,4C,4 | 
[V:1] z8 | 
[V:2] z2B2c4 | 
[V:3] z4G4 | 
[V:4] D,2E,3D,C,2- | 
[V:1] z8 | 
[V:2] d4c2e2- | 
[V:3] G8 | 
[V:4] C,2B,,2C,4 | 
[V:1] z8 | 
[V:2] edB4c2 | 
[V:3] z4G4 | 
[V:4] D,2E,3D,C,2- | 
[V:1] z8 | 
[V:2] d4c2e2- | 
[V:3] G8 | 
[V:4] C,2B,,2C,4 | 
[V:1] z8 | 
[V:2] edB4c2 | 
[V:3] z4G4 | 
[V:4] D,2E,3D,C,2- | 
[V:1] z8 | 
[V:2] d4e4 | 
[V:3] G8 | 
[V:4] C,2B,,2C,4 | 
[V:1] c8 | 
[V:2] z4e4 | 
[V:3] z4G4 | 
[V:4] z4C,4 | 
[V:1] d4e4 | 
[V:2] f4g4 | 
[V:3] A4B4 | 
[V:4] F,4E,4 | 
[V:1] e4e2e2- | 
[V:2] e4e2e2 | 
[V:3] c4B2c2 | 
[V:4] A,4G,2A,2 | 
[V:1] edc4BA | 
[V:2] e4e4 | 
[V:3] B2c2A4 | 
[V:4] G,2A,4G,F, | 
[V:1] B8 | 
[V:2] e8 | 
[V:3] G4G3A | 
[V:4] E,4z2E,2- | 
[V:1] z8 | 
[V:2] z2e4dc | 
[V:3] B2G4c2- | 
[V:4] E,2G,4F,E, | 
[V:1] z8 | 
[V:2] f4e2g2- | 
[V:3] c2B2c3d | 
[V:4] D,4C,4 | 
[V:1] z8 | 
[V:2] gfe4dc | 
[V:3] efg4fe | 
[V:4] C,D,E,F,G,A,B,C | 
[V:1] z8 | 
[V:2] B2c2G4 | 
[V:3] f2e2d4 | 
[V:4] D2C4B,2 | 
[V:1] z8 | 
[V:2] z4c4 | 
[V:3] z2g4fe | 
[V:4] C4C,4 | 
[V:1] f6f2 | 
[V:2] A2a4gf | 
[V:3] f4d4 | 
[V:4] D,2F,4E,D, | 
[V:1] e4d4- | 
[V:2] g2c2d4 | 
[V:3] e2g4fe | 
[V:4] C,4G,4 | 
[V:1] d2cdc4- | 
[V:2] z2g4g2- | 
[V:3] f2e4dc | 
[V:4] A,2C4B,A, | 
[V:1] c2BcB2AB | 
[V:2] g2a2g4 | 
[V:3] e2f2d4 | 
[V:4] G,2F,2G,4 | 
[V:1] c8 ||  
[V:2] e8 & g8 ||  
[V:3] c8 ||  
[V:4] C,8 ||  
[V:1]  [K:C] [K:clef=treble][M:2/1]z8 | 
[V:2]  [K:C] [K:clef=treble-8][M:2/1]g4g2g2 | 
[V:3]  [K:C] [K:clef=treble-8][M:2/1]c4c2c2 | 
[V:4]  [K:C] [K:clef=bass][M:2/1]C,4C,2E,2 | 
[V:1] z8 | 
[V:2] f4g4 | 
[V:3] d4e4 | 
[V:4] D,4C,2C2- | 
[V:1] z8 | 
[V:2] c4z2c2 | 
[V:3] e4e2e2- | 
[V:4] CB,A,G,A,2G,F, | 
[V:1] z8 | 
[V:2] g3fede2- | 
[V:3] edc4BA | 
[V:4] E,4z2A,2 | 
[V:1] z8 | 
[V:2] e2dcd2e2- | 
[V:3] B4z4 | 
[V:4] G,3A,B,2A,2- | 
[V:1] z8 | 
[V:2] eAd4^c2 | 
[V:3] z8 | 
[V:4] A,2G,F,E,4 | 
[V:1] z8 | 
[V:2] d4z4 | 
[V:3] f4f2f2 | 
[V:4] D,4z2D,2 | 
[V:1] z8 | 
[V:2] z8 | 
[V:3] e4d4- | 
[V:4] E,4F,4 | 
[V:1] z8 | 
[V:2] z8 | 
[V:3] d2cBc2d2- | 
[V:4] G,4E,2F,E, | 
[V:1] z8 | 
[V:2] z4f4 | 
[V:3] d2c4B2 | 
[V:4] F,E,D,C,D,4 | 
[V:1] z8 | 
[V:2] e2g4fe | 
[V:3] c4c2c2 | 
[V:4] C,8 | 
[V:1] z8 | 
[V:2] d4c4 | 
[V:3] d4e4 | 
[V:4] z4C,4- | 
[V:1] z8 | 
[V:2] z2c4B2 | 
[V:3] e4e2e2- | 
[V:4] C,2C,3D,E,2 | 
[V:1] z8 | 
[V:2] c4e4 | 
[V:3] edc4BA | 
[V:4] C,4z2C,2 | 
[V:1] z8 | 
[V:2] d4c4 | 
[V:3] B4z4 | 
[V:4] G,4A,2C2- | 
[V:1] z8 | 
[V:2] z2g4fe | 
[V:3] z8 | 
[V:4] C2B,2C2C,2 | 
[V:1] z8 | 
[V:2] f2a4A2- | 
[V:3] f4f2f2 | 
[V:4] D,2F,3E,D,2- | 
[V:1] z8 | 
[V:2] ABc2BAf2- | 
[V:3] e4d4- | 
[V:4] D,2C,2D,3E, | 
[V:1] z8 | 
[V:2] f2edc2_b2- | 
[V:3] d2cBc2d2- | 
[V:4] F,2G,2A,2_B,2 | 
[V:1] z8 | 
[V:2] b2a3gg2- | 
[V:3] d2c4B2 | 
[V:4] G,2A,2F,2G,2 | 
[V:1] z8 | 
[V:2] g2^f2g3f | 
[V:3] c4z4 | 
[V:4] A,4G,4 | 
[V:1] z8 | 
[V:2] edc4BA | 
[V:3] e4e2e2 | 
[V:4] z2C,4G,2- | 
[V:1] z8 | 
[V:2] G4A4 | 
[V:3] d2g4^f2 | 
[V:4] G,2F,E,D,4 | 
[V:1] z8 | 
[V:2] G2g4a2- | 
[V:3] g4e2f2- | 
[V:4] z2G,4F,2 | 
[V:1] z8 | 
[V:2] agafgfed | 
[V:3] fefdedcB | 
[V:4] D,2F,2E,2A,2- | 
[V:1] z8 | 
[V:2] f2g2e4 | 
[V:3] A2d4^c2 | 
[V:4] A,2G,2A,4 | 
[V:1] z8 | 
[V:2] z2a4gf | 
[V:3] d4z2d2 | 
[V:4] D,4z4 | 
[V:1] z8 | 
[V:2] g2c'4b2 | 
[V:3] e6d2 | 
[V:4] z8 | 
[V:1] z8 | 
[V:2] a2gfgfed | 
[V:3] c4B4 | 
[V:4] z8 | 
[V:1] z8 | 
[V:2] e4d4 | 
[V:3] c4d4 | 
[V:4] z2A,2B,2D2- | 
[V:1] z8 | 
[V:2] z8 | 
[V:3] z2d2e4- | 
[V:4] D2CB,C2B,A, | 
[V:1] z8 | 
[V:2] z2d2e2f2 | 
[V:3] e2d2c4 | 
[V:4] G,2B,2A,4 | 
[V:1] z8 | 
[V:2] g4e4 | 
[V:3] B4c4 | 
[V:4] z2G,2A,2C2 | 
[V:1] z8 | 
[V:2] z2d4c2 | 
[V:3] d4z4 | 
[V:4] G,2B,2A,4 | 
[V:1] z8 | 
[V:2] B2G2d4 | 
[V:3] d3cBAG2- | 
[V:4] z2G,3F,E,D, | 
[V:1] z8 | 
[V:2] z2g4f2 | 
[V:3] G2c3BBA | 
[V:4] C,2E,2D,4 | 
[V:1] z8 | 
[V:2] e2dcB2e2- | 
[V:3] c2e2d2g2- | 
[V:4] z2G,3F,E,D, | 
[V:1] z8 | 
[V:2] e2d2c2BA | 
[V:3] g2f2e2d2- | 
[V:4] C,2D,2E,2F,2 | 
[V:1] z8 | 
[V:2] G2d2e2g2- | 
[V:3] d2cBA2G2- | 
[V:4] G,4z2C,2- | 
[V:1] z8 | 
[V:2] g2fed4 | 
[V:3] G2c4B2 | 
[V:4] C,D,E,2F,2G,2 | 
[V:1] z8 | 
[V:2] c2BAG2A2- | 
[V:3] c8- | 
[V:4] A,2G,F,E,2F,2 | 
[V:1] z8 | 
[V:2] A2G4F2 | 
[V:3] c8- | 
[V:4] F,2C,2E,2F,2 | 
[V:1] z8 ||  
[V:2] G8 ||  
[V:3] c8 ||  
[V:4] C,8 ||  
[V:1]  [K:C] [K:clef=treble][M:2/1]e4e4 | 
[V:2]  [K:C] [K:clef=treble-8][M:2/1]g4g2g2 | 
[V:3]  [K:C] [K:clef=treble-8][M:2/1]c4c2c2 | 
[V:4]  [K:C] [K:clef=bass][M:2/1]C,4C,2C,2 | 
[V:1] d4g4- | 
[V:2] g4g4 | 
[V:3] B4B4 | 
[V:4] G,4E,4 | 
[V:1] g4f4 | 
[V:2] e4f4 | 
[V:3] c4A4 | 
[V:4] C,4D,4 | 
[V:1] g8 | 
[V:2] e4e4 | 
[V:3] G4c4 | 
[V:4] E,4C,4 | 
[V:1] z8 | 
[V:2] a4g4 | 
[V:3] c2d4cB | 
[V:4] F,4G,4 | 
[V:1] z8 | 
[V:2] e4z4 | 
[V:3] cdefg2e2- | 
[V:4] A,4B,2C2- | 
[V:1] z8 | 
[V:2] z8 | 
[V:3] e2dcd2c2- | 
[V:4] C2B,A,B,2A,2- | 
[V:1] z8 | 
[V:2] z8 | 
[V:3] c2f4e2 | 
[V:4] A,2G,F,G,4 | 
[V:1] f6f2 | 
[V:2] a6a2 | 
[V:3] f4f2f2 | 
[V:4] F,8 | 
[V:1] f4e4- | 
[V:2] a4a4 | 
[V:3] d4c4 | 
[V:4] z8 | 
[V:1] e2d2d4- | 
[V:2] a4a2a2 | 
[V:3] d4f2f2 | 
[V:4] D,4D,2D,2 | 
[V:1] d4^c4 | 
[V:2] a4a4 | 
[V:3] e4e4 | 
[V:4] A,4A,4 | 
[V:1] d8- | 
[V:2] f4g2a2- | 
[V:3] d8 | 
[V:4] _B,3A,G,2F,2 | 
[V:1] d8 | 
[V:2] a2b4ag | 
[V:3] z4d4 | 
[V:4] D,2G,4F,E, | 
[V:1] z8 | 
[V:2] a4g2c'2 | 
[V:3] f4e4 | 
[V:4] D,4z4 | 
[V:1] z8 | 
[V:2] b2a3gfe | 
[V:3] d4c2d2- | 
[V:4] z8 | 
[V:1] z8 | 
[V:2] f3ga2b2- | 
[V:3] d2cBA2G2 | 
[V:4] z4z2G,2- | 
[V:1] z8 | 
[V:2] bag4^f2 | 
[V:3] B2c2A4 | 
[V:4] G,2C,2D,4 | 
[V:1] z8 | 
[V:2] g3fe2d2- | 
[V:3] G4z4 | 
[V:4] E,3F,G,A,B,2- | 
[V:1] z8 | 
[V:2] dcB2A4 | 
[V:3] z8 | 
[V:4] B,A,G,4^F,2 | 
[V:1] z4z2d2 | 
[V:2] G2g4f2 | 
[V:3] z8 | 
[V:4] G,3A,B,CD2 | 
[V:1] e6d2 | 
[V:2] e2g4f2 | 
[V:3] z8 | 
[V:4] C2B,A,G,2D,2 | 
[V:1] c4B4 | 
[V:2] e2dcd4 | 
[V:3] z8 | 
[V:4] A,4G,4 | 
[V:1] c4d4 | 
[V:2] c4z4 | 
[V:3] z4z2d2 | 
[V:4] z2C2B,2D2 | 
[V:1] z8 | 
[V:2] z8 | 
[V:3] e6d2 | 
[V:4] C2G,4F,2 | 
[V:1] z8 | 
[V:2] z8 | 
[V:3] c4B4 | 
[V:4] E,2D,C,D,4 | 
[V:1] z4z2d2 | 
[V:2] z2e2f4 | 
[V:3] c4d4 | 
[V:4] z8 | 
[V:1] e6d2 | 
[V:2] g2a3gf2 | 
[V:3] z2A2c2d2 | 
[V:4] z8 | 
[V:1] c4B2A2- | 
[V:2] e3fg2a2- | 
[V:3] ABcde2f2- | 
[V:4] z2A,2G,2F,2 | 
[V:1] A2d4^c2 | 
[V:2] a2gfa4 | 
[V:3] f2ede4 | 
[V:4] D,4A,4 | 
[V:1] d8 | 
[V:2] z2a3gfe | 
[V:3] d4z4 | 
[V:4] z2D,3E,F,G, | 
[V:1] z8 | 
[V:2] f2g2f2e2- | 
[V:3] z8 | 
[V:4] A,2B,2A,2G,2- | 
[V:1] z8 | 
[V:2] e2dcf2e2- | 
[V:3] z8 | 
[V:4] G,2F,E,D,2C,2 | 
[V:1] z8 | 
[V:2] edd4^c2 | 
[V:3] z4z2e2 | 
[V:4] D,2F,2E,4 | 
[V:1] z8 | 
[V:2] d4z2d2- | 
[V:3] f2d4cB | 
[V:4] D,4z2G,2 | 
[V:1] z8 | 
[V:2] d2g4fe | 
[V:3] A2G4c2- | 
[V:4] F,2E,2C,4 | 
[V:1] z8 | 
[V:2] d4c4 | 
[V:3] c2B2c2g2- | 
[V:4] G,4z2C,2- | 
[V:1] z8 | 
[V:2] z8 | 
[V:3] gfede2f2 | 
[V:4] C,D,E,F,G,2A,2 | 
[V:1] z8 | 
[V:2] z8 | 
[V:3] e2d4cB | 
[V:4] G,2F,4E,D, | 
[V:1] z8 | 
[V:2] z8 | 
[V:3] e2d3cc2- | 
[V:4] C,2B,,2C,2E,2 | 
[V:1] z8 | 
[V:2] z2d2e2g2- | 
[V:3] c2B2c4 | 
[V:4] D,4C,4 | 
[V:1] d3cBAG2- | 
[V:2] g2fed2g2- | 
[V:3] z2d4e2- | 
[V:4] G,3A,B,2C2- | 
[V:1] G2c4B2 | 
[V:2] gef2g4 | 
[V:3] e2dcd4 | 
[V:4] C2B,A,G,4 | 
[V:1] c4z4 | 
[V:2] e4d4 | 
[V:3] c4z2d2 | 
[V:4] z2C4B,2 | 
[V:1] z8 | 
[V:2] z8 | 
[V:3] e2g4fe | 
[V:4] C2B,A,G,2C2 | 
[V:1] z8 | 
[V:2] z4c4 | 
[V:3] d2g4f2 | 
[V:4] B,2C2A,4 | 
[V:1] d3cBAG2- | 
[V:2] B2G4g2- | 
[V:3] g2fed2e2- | 
[V:4] G,3A,B,2C2- | 
[V:1] G2c4B2 | 
[V:2] gef2g4 | 
[V:3] e2dcd4 | 
[V:4] C2B,A,G,4 | 
[V:1] c4z4 | 
[V:2] e4d4 | 
[V:3] c4z4 | 
[V:4] z2C4B,2 | 
[V:1] z8 | 
[V:2] z2g4fe | 
[V:3] z8 | 
[V:4] C2B,A,G,2C2 | 
[V:1] z8 | 
[V:2] d2g3ef2 | 
[V:3] z4c4 | 
[V:4] B,2C2A,4 | 
[V:1] d3cBAG2- | 
[V:2] g4z2g2- | 
[V:3] B3cd2e2- | 
[V:4] G,3A,B,2C2- | 
[V:1] G2c4B2 | 
[V:2] gef2g4 | 
[V:3] e2dcd4 | 
[V:4] C2B,A,G,4 | 
[V:1] c2e4dc | 
[V:2] g8 | 
[V:3] c8 | 
[V:4] C,8 | 
[V:1] B8- | 
[V:2] g8- | 
[V:3] d8- | 
[V:4] G,8- | 
[V:1] B8 | 
[V:2] g8 | 
[V:3] d8 | 
[V:4] G,8 | 
[V:1] c8 |]  
[V:2] g8 |]  
[V:3] c8 |]  
[V:4] C,8 |]  



